X: 4327
T: Bogman, The
R: slide
M: 12/8
K: Amajor
|:B|c2e e2f e2c A2B|c2f fec B3 BAB|c2e e2f e2c A2B|
[1 cec BcB A3 A2:|2 cec BcB A3 Bce||
|:a2a g2f e2c A2B|c2f fec B3 Bce|a2a g2f e2c A2B|
[1 cec BcB A3 Bce:|2 cec BcB A3 A2||

